app/dist/common/images/kopin.svg

<svg height="18" width="18" xmlns="http://www.w3.org/2000/svg"><path d="m0 0h18v18h-18z" fill="#f0f3fa"/><path d="m14 4h-10v10h10zm-6.2 1h-2.8v2.86l2.65 1.14-2.65 1.14v2.86h2.8l1.2-2.65 1.2 2.65h2.8v-2.86l-2.65-1.14 2.65-1.14v-2.86h-2.8l-1.2 2.65zm2.55 4-1.35-1.35-1.35 1.35 1.35 1.35z" fill="#005a9c" fill-rule="evenodd"/></svg>

<!-- by TradingView --><svg xmlns="http://www.w3.org/2000/svg" width="18" height="18"><path fill="#F0F3FA" d="M0 0h18v18H0z"/><path fill-rule="evenodd" d="M14 4H4v10h10V4zM7.8 5H5v2.86L7.65 9 5 10.14V13h2.8L9 10.35 10.2 13H13v-2.86L10.35 9 13 7.86V5h-2.8L9 7.65 7.8 5zm2.55 4L9 7.65 7.65 9 9 10.35 10.35 9z" fill="#005A9C"/></svg>
